iconfont/vimeo.svg

<svg xmlns="http://www.w3.org/2000/svg" width="24" height="24"><path d="M22 7.42c-.09 1.95-1.45 4.62-4.08 8.02C15.2 19 12.9 20.75 11 20.75c-1.15 0-2.14-1.08-2.95-3.25-.55-1.96-1.05-3.94-1.61-5.92-.6-2.16-1.24-3.24-1.94-3.24-.14 0-.66.32-1.56.95L2 8.07c1-.87 1.96-1.74 2.92-2.61 1.32-1.14 2.31-1.74 2.96-1.8 1.56-.16 2.52.92 2.88 3.2.39 2.47.66 4 .81 4.6.43 2.04.93 3.04 1.48 3.04.42 0 1.05-.64 1.89-1.97.84-1.32 1.29-2.33 1.35-3.03.12-1.14-.33-1.71-1.35-1.71-.48 0-.97.11-1.48.33.98-3.23 2.86-4.8 5.63-4.71 2.06.06 3.03 1.4 2.91 4.01z"/></svg>

<?xml version="1.0" encoding="UTF-8"?><!DOCTYPE svg PUBLIC "-//W3C//DTD SVG 1.1//EN" "http://www.w3.org/Graphics/SVG/1.1/DTD/svg11.dtd"><svg xmlns="http://www.w3.org/2000/svg" xmlns:xlink="http://www.w3.org/1999/xlink" version="1.1" width="24" height="24" viewBox="0 0 24 24"><path d="M22,7.42C21.91,9.37 20.55,12.04 17.92,15.44C15.2,19 12.9,20.75 11,20.75C9.85,20.75 8.86,19.67 8.05,17.5C7.5,15.54 7,13.56 6.44,11.58C5.84,9.42 5.2,8.34 4.5,8.34C4.36,8.34 3.84,8.66 2.94,9.29L2,8.07C3,7.2 3.96,6.33 4.92,5.46C6.24,4.32 7.23,3.72 7.88,3.66C9.44,3.5 10.4,4.58 10.76,6.86C11.15,9.33 11.42,10.86 11.57,11.46C12,13.5 12.5,14.5 13.05,14.5C13.47,14.5 14.1,13.86 14.94,12.53C15.78,11.21 16.23,10.2 16.29,9.5C16.41,8.36 15.96,7.79 14.94,7.79C14.46,7.79 13.97,7.9 13.46,8.12C14.44,4.89 16.32,3.32 19.09,3.41C21.15,3.47 22.12,4.81 22,7.42Z" /></svg>
